X:337
T:Old Joe Clark
C:Traditional
N:Transcribed by Mike Stangeland
R:bluegrass
L:1/8
Q:1/4=230
M:4/4
K:A
z6 cd |: "A"e^d ef =gf ga | ef ed cB Ac | e^d ef =gf gf | "E"e^d ef e2 c=d | "A"e^d ef =gf gf | 
ef ed cB AB | "A"cA Bc "E"BA GB |1 A"A"G AB A2 cd :|2 A"A"G AB A2 F=G | "A"AG AB cB cd | 
ef ed cB AF | AG AB cB AF | "G"=GF GA G2 FG | "A"AG AB cB cd | ef ed cB AB | c"A"A Bc "E"BA GB :| A"A"G AB A4 | 


